!!!OTL: HE HE FERNDIN
!!!ARE: Europa, Mitteleuropa, Deutschland, Westfalen
!!!SCT: E1563
!!!YEM: Copyright 1995, estate of Helmut Schaffrath.
**kern
*ICvox
*Ivox
*M6/8
*k[]
*a:
{8a
=1
4a
8ee
4ee
8dd
=2
8.ee
16dd
8ccn
4b}
{8ccn
=3
8.a
16g#
8a
4b
8ccn
=4
8a
8g#
8a
4b}
{8ccn
=5
8a
8g#
8a
4b}
{8ee
=6
4ee
8b
4ccn
8b
=7
4.a
4r}
==
!!!AGN: Staende -, Bauern - Lied, Flachsbrechen, bei der Arbeit
!!!ONB: ESAC (Essen Associative Code) Database: ERK3
!!!AMT: compound duple
!!!AIN: vox
!!!EED: Helmut Schaffrath
!!!EEV: 1.0
*-
